packages/dnb-eufemia/assets/icons/history_medium.svg

<svg width="24" height="24" viewBox="0 0 24 24" fill="none" xmlns="http://www.w3.org/2000/svg">
<path d="M13.625 20.5C13.2108 20.5 12.875 20.8358 12.875 21.25C12.875 21.6642 13.2108 22 13.625 22V20.5ZM4.25 13.5L3.71967 14.0303C4.01256 14.3232 4.48744 14.3232 4.78033 14.0303L4.25 13.5ZM8.03033 10.7803C8.32322 10.4874 8.32322 10.0126 8.03033 9.71967C7.73744 9.42678 7.26256 9.42678 6.96967 9.71967L8.03033 10.7803ZM1.53033 9.71967C1.23744 9.42678 0.762563 9.42678 0.46967 9.71967C0.176777 10.0126 0.176777 10.4874 0.46967 10.7803L1.53033 9.71967ZM13.5 7.24707C13.5 6.83286 13.1642 6.49707 12.75 6.49707C12.3358 6.49707 12 6.83286 12 7.24707H13.5ZM12.75 12.9971H12C12 13.4113 12.3358 13.7471 12.75 13.7471V12.9971ZM17 13.7471C17.4142 13.7471 17.75 13.4113 17.75 12.9971C17.75 12.5829 17.4142 12.2471 17 12.2471V13.7471ZM23.75 11.875C23.75 6.28312 19.2169 1.75 13.625 1.75V3.25C18.3885 3.25 22.25 7.11154 22.25 11.875H23.75ZM13.625 1.75C8.03312 1.75 3.5 6.28312 3.5 11.875H5C5 7.11154 8.86154 3.25 13.625 3.25V1.75ZM13.625 22C19.2169 22 23.75 17.4669 23.75 11.875H22.25C22.25 16.6385 18.3885 20.5 13.625 20.5V22ZM4.78033 14.0303L8.03033 10.7803L6.96967 9.71967L3.71967 12.9697L4.78033 14.0303ZM4.78033 12.9697L1.53033 9.71967L0.46967 10.7803L3.71967 14.0303L4.78033 12.9697ZM3.5 11.875V13.5H5V11.875H3.5ZM12 7.24707V12.9971H13.5V7.24707H12ZM12.75 13.7471H17V12.2471H12.75V13.7471Z" fill="black"/>
</svg>

<svg width="24" height="24" viewBox="0 0 24 24" fill="none" xmlns="http://www.w3.org/2000/svg"><path d="M13.625 20.5a.75.75 0 0 0 0 1.5v-1.5Zm-9.375-7-.53.53a.75.75 0 0 0 1.06 0l-.53-.53Zm3.78-2.72a.75.75 0 1 0-1.06-1.06l1.06 1.06Zm-6.5-1.06a.75.75 0 0 0-1.06 1.06l1.06-1.06ZM13.5 7.247a.75.75 0 0 0-1.5 0h1.5Zm-.75 5.75H12c0 .414.336.75.75.75v-.75Zm4.25.75a.75.75 0 0 0 0-1.5v1.5Zm6.75-1.872c0-5.592-4.533-10.125-10.125-10.125v1.5a8.625 8.625 0 0 1 8.625 8.625h1.5ZM13.625 1.75C8.033 1.75 3.5 6.283 3.5 11.875H5a8.625 8.625 0 0 1 8.625-8.625v-1.5Zm0 20.25c5.592 0 10.125-4.533 10.125-10.125h-1.5a8.625 8.625 0 0 1-8.625 8.625V22ZM4.78 14.03l3.25-3.25-1.06-1.06-3.25 3.25 1.06 1.06Zm0-1.06L1.53 9.72.47 10.78l3.25 3.25 1.06-1.06ZM3.5 11.875V13.5H5v-1.625H3.5ZM12 7.247v5.75h1.5v-5.75H12Zm.75 6.5H17v-1.5h-4.25v1.5Z" fill="#000"/></svg>
